src/images/circuits/australian.svg

<svg width="40" height="21" viewBox="0 0 40 21" fill="none" xmlns="http://www.w3.org/2000/svg">
<path d="M15.9385 19.7H23.4H29.1C32.3 19.7 32.2 19 31.9 17.8C31.6 16.6 31.9 16.2 33.3 16.7C34.7 17.2 36.6 17.3 36.9 16.7L38.7729 12.9543C38.8979 12.7043 38.7934 12.401 38.5413 12.2803L32.0238 9.15926C31.9427 9.12047 31.8528 9.10422 31.7633 9.1122L26.5704 9.57586C26.4018 9.59091 26.2533 9.69089 26.1665 9.8363C25.8084 10.4366 25.126 11.356 24.4377 11.588C24.4126 11.5964 24.386 11.6019 24.3597 11.6053C19.8922 12.1946 18.5949 11.2961 16.9 10C15.2 8.7 14 5 13.3 4C12.6 3 9.6 1 8.2 1C6.8 1 5.7 2.2 5 2.8C4.56995 3.16862 3.83716 3.32492 3.30887 3.37762C3.07171 3.40127 2.86635 3.56823 2.81961 3.80194L2.61087 4.84564C2.60365 4.88177 2.59245 4.91699 2.57749 4.95065L1.43179 7.52848C1.41072 7.57587 1.39716 7.62625 1.39159 7.67781L1.02627 11.057C1.0097 11.2103 1.06483 11.3627 1.17567 11.47L3.82088 14.0299C3.98509 14.1888 4.02066 14.4384 3.90919 14.6379C3.57128 15.2426 3.12374 16.076 2.9618 16.4858C2.90931 16.6186 2.9594 16.7565 3.07564 16.8395C5.08823 18.2761 11.2543 17.897 13 17.8C14.2426 17.731 15.0782 18.6995 15.4552 19.3947C15.5527 19.5744 15.7341 19.7 15.9385 19.7Z" stroke="#FF0000"/>
</svg>

<svg width="40" height="21" fill="none" xmlns="http://www.w3.org/2000/svg"><path d="M15.938 19.7H29.1c3.2 0 3.1-.7 2.8-1.9-.3-1.2 0-1.6 1.4-1.1s3.3.6 3.6 0l1.873-3.746a.5.5 0 0 0-.232-.674l-6.517-3.12a.5.5 0 0 0-.26-.048l-5.194.464a.53.53 0 0 0-.404.26c-.358.6-1.04 1.52-1.728 1.752a.415.415 0 0 1-.078.017c-4.468.59-5.765-.309-7.46-1.605-1.7-1.3-2.9-5-3.6-6-.7-1-3.7-3-5.1-3C6.8 1 5.7 2.2 5 2.8c-.43.369-1.163.525-1.691.578a.546.546 0 0 0-.49.424l-.208 1.044a.5.5 0 0 1-.034.105L1.432 7.528a.5.5 0 0 0-.04.15l-.366 3.379a.5.5 0 0 0 .15.413l2.645 2.56c.164.159.2.408.088.608-.338.605-.785 1.438-.947 1.848-.053.133-.003.27.114.354 2.012 1.436 8.178 1.057 9.924.96 1.243-.069 2.078.9 2.455 1.595a.56.56 0 0 0 .483.305Z" stroke="red"/></svg>
